X: 31461
T: Paddy Taylor's
R: reel
M: 4/4
K: Amixolydian
|BAEA BAEA|BAed BG~G2|Be~e2 d2ed|BG~G2 BcdA:|
~A2Be ~a3f|gfed ea~a2|a2Be ~a3g|egdB GABG|
~A2Be ~a3f|gfed efge|f3d ~e3d|BG~G2 BcdA|

